src/static/img/edde.svg

<svg role="img" preserveAspectRatio="none" width="235" height="76" viewBox="0 0 235 76" fill="none" xmlns="http://www.w3.org/2000/svg">
<path d="M70.08 60C69.6533 60 69.2693 59.8507 68.928 59.552C68.6293 59.2107 68.48 58.8267 68.48 58.4V16.8C68.48 16.3307 68.6293 15.9467 68.928 15.648C69.2693 15.3493 69.6533 15.2 70.08 15.2H99.968C100.437 15.2 100.821 15.3493 101.12 15.648C101.419 15.9467 101.568 16.3307 101.568 16.8V22.816C101.568 23.2427 101.419 23.6267 101.12 23.968C100.821 24.2667 100.437 24.416 99.968 24.416H79.552V33.056H98.56C99.0293 33.056 99.4133 33.2267 99.712 33.568C100.011 33.8667 100.16 34.2507 100.16 34.72V40.288C100.16 40.7147 100.011 41.0987 99.712 41.44C99.4133 41.7387 99.0293 41.888 98.56 41.888H79.552V50.784H100.48C100.949 50.784 101.333 50.9333 101.632 51.232C101.931 51.5307 102.08 51.9147 102.08 52.384V58.4C102.08 58.8267 101.931 59.2107 101.632 59.552C101.333 59.8507 100.949 60 100.48 60H70.08ZM109.849 60C109.423 60 109.039 59.8507 108.697 59.552C108.399 59.2107 108.249 58.8267 108.249 58.4V16.8C108.249 16.3307 108.399 15.9467 108.697 15.648C109.039 15.3493 109.423 15.2 109.849 15.2H126.489C132.761 15.2 137.625 16.6933 141.081 19.68C144.537 22.6667 146.351 26.9973 146.521 32.672C146.564 33.9093 146.585 35.552 146.585 37.6C146.585 39.648 146.564 41.2693 146.521 42.464C146.308 48.3947 144.537 52.8107 141.209 55.712C137.924 58.5707 133.124 60 126.809 60H109.849ZM126.489 50.784C129.305 50.784 131.375 50.1227 132.697 48.8C134.02 47.4347 134.724 45.28 134.809 42.336C134.895 41.0987 134.937 39.4987 134.937 37.536C134.937 35.5733 134.895 33.9947 134.809 32.8C134.724 29.9413 133.956 27.8293 132.505 26.464C131.097 25.0987 128.985 24.416 126.169 24.416H119.769V50.784H126.489ZM154.556 60C154.129 60 153.745 59.8507 153.404 59.552C153.105 59.2107 152.956 58.8267 152.956 58.4V16.8C152.956 16.3307 153.105 15.9467 153.404 15.648C153.745 15.3493 154.129 15.2 154.556 15.2H171.196C177.468 15.2 182.332 16.6933 185.788 19.68C189.244 22.6667 191.057 26.9973 191.228 32.672C191.271 33.9093 191.292 35.552 191.292 37.6C191.292 39.648 191.271 41.2693 191.228 42.464C191.015 48.3947 189.244 52.8107 185.916 55.712C182.631 58.5707 177.831 60 171.516 60H154.556ZM171.196 50.784C174.012 50.784 176.081 50.1227 177.404 48.8C178.727 47.4347 179.431 45.28 179.516 42.336C179.601 41.0987 179.644 39.4987 179.644 37.536C179.644 35.5733 179.601 33.9947 179.516 32.8C179.431 29.9413 178.663 27.8293 177.212 26.464C175.804 25.0987 173.692 24.416 170.876 24.416H164.476V50.784H171.196ZM199.263 60C198.836 60 198.452 59.8507 198.111 59.552C197.812 59.2107 197.663 58.8267 197.663 58.4V16.8C197.663 16.3307 197.812 15.9467 198.111 15.648C198.452 15.3493 198.836 15.2 199.263 15.2H229.151C229.62 15.2 230.004 15.3493 230.303 15.648C230.601 15.9467 230.751 16.3307 230.751 16.8V22.816C230.751 23.2427 230.601 23.6267 230.303 23.968C230.004 24.2667 229.62 24.416 229.151 24.416H208.735V33.056H227.743C228.212 33.056 228.596 33.2267 228.895 33.568C229.193 33.8667 229.343 34.2507 229.343 34.72V40.288C229.343 40.7147 229.193 41.0987 228.895 41.44C228.596 41.7387 228.212 41.888 227.743 41.888H208.735V50.784H229.663C230.132 50.784 230.516 50.9333 230.815 51.232C231.113 51.5307 231.263 51.9147 231.263 52.384V58.4C231.263 58.8267 231.113 59.2107 230.815 59.552C230.516 59.8507 230.132 60 229.663 60H199.263Z" fill="url(#paint0_linear_48_1343)"/>
<path fill-rule="evenodd" clip-rule="evenodd" d="M3.06336 20.1679L0.175682 25.3096L5.30749e-06 25.5498L0.0310476 25.5672L0 25.6225V51.1842L0.000228435 51.1842L5.30749e-06 51.1845L28.5345 67.1848L28.5919 67.2758L56.7652 51.3562L56.766 50.8599L56.7674 49.8674L56.7459 49.8372V21.9393L56.7337 21.9397L56.7638 21.8942L30.1229 7.27637L30.1227 7.27686L3.06377 20.169L3.06336 20.1679ZM50.1476 29.6297L28.6325 41.4688L28.5718 41.571L5.1056 28.4126V33.1886L28.8394 46.4969L42.0007 39.1169L45.2999 44.6668L28.5914 53.8884L28.5718 53.8478V53.8875L5.1056 40.6136V46.6475L28.5446 59.7906L50.1476 47.677V29.6297ZM9.49628 23.8787L29.2921 13.396L48.0268 23.4678L28.7044 34.3026L22.651 31.0175L31.8909 25.8364C32.3726 25.5662 32.5343 24.9624 32.2521 24.4877L29.9749 20.657C29.6927 20.1822 29.0734 20.0163 28.5917 20.2865L15.9446 27.3781L9.49628 23.8787Z" fill="url(#paint1_linear_48_1343)"/>
<defs>
<linearGradient id="paint0_linear_48_1343" x1="64" y1="0" x2="64" y2="76" gradientUnits="userSpaceOnUse">
<stop stop-color="#42275A"/>
<stop offset="1" stop-color="#734B6D"/>
</linearGradient>
<linearGradient id="paint1_linear_48_1343" x1="0" y1="7.27637" x2="0" y2="67.2758" gradientUnits="userSpaceOnUse">
<stop stop-color="#42275A"/>
<stop offset="1" stop-color="#734B6D"/>
</linearGradient>
</defs>
</svg>

<svg preserveAspectRatio="none" width="235" height="76" fill="none" xmlns="http://www.w3.org/2000/svg"><path d="M70.08 60c-.427 0-.81-.15-1.152-.448a1.704 1.704 0 0 1-.448-1.152V16.8c0-.47.15-.853.448-1.152a1.704 1.704 0 0 1 1.152-.448h29.888c.469 0 .853.15 1.152.448.299.299.448.683.448 1.152v6.016c0 .427-.149.81-.448 1.152-.299.299-.683.448-1.152.448H79.552v8.64H98.56c.47 0 .853.17 1.152.512.299.299.448.683.448 1.152v5.568c0 .427-.149.81-.448 1.152-.299.299-.683.448-1.152.448H79.552v8.896h20.928c.469 0 .853.15 1.152.448.299.299.448.683.448 1.152V58.4c0 .427-.149.81-.448 1.152-.299.299-.683.448-1.152.448h-30.4Zm39.769 0c-.426 0-.81-.15-1.152-.448a1.707 1.707 0 0 1-.448-1.152V16.8c0-.47.15-.853.448-1.152a1.706 1.706 0 0 1 1.152-.448h16.64c6.272 0 11.136 1.493 14.592 4.48 3.456 2.987 5.27 7.317 5.44 12.992.043 1.237.064 2.88.064 4.928s-.021 3.67-.064 4.864c-.213 5.93-1.984 10.347-5.312 13.248-3.285 2.859-8.085 4.288-14.4 4.288h-16.96Zm16.64-9.216c2.816 0 4.886-.661 6.208-1.984 1.323-1.365 2.027-3.52 2.112-6.464.086-1.237.128-2.837.128-4.8 0-1.963-.042-3.541-.128-4.736-.085-2.859-.853-4.97-2.304-6.336-1.408-1.365-3.52-2.048-6.336-2.048h-6.4v26.368h6.72ZM154.556 60c-.427 0-.811-.15-1.152-.448a1.702 1.702 0 0 1-.448-1.152V16.8c0-.47.149-.853.448-1.152a1.703 1.703 0 0 1 1.152-.448h16.64c6.272 0 11.136 1.493 14.592 4.48 3.456 2.987 5.269 7.317 5.44 12.992.043 1.237.064 2.88.064 4.928s-.021 3.67-.064 4.864c-.213 5.93-1.984 10.347-5.312 13.248-3.285 2.859-8.085 4.288-14.4 4.288h-16.96Zm16.64-9.216c2.816 0 4.885-.661 6.208-1.984 1.323-1.365 2.027-3.52 2.112-6.464.085-1.237.128-2.837.128-4.8 0-1.963-.043-3.541-.128-4.736-.085-2.859-.853-4.97-2.304-6.336-1.408-1.365-3.52-2.048-6.336-2.048h-6.4v26.368h6.72ZM199.263 60c-.427 0-.811-.15-1.152-.448a1.702 1.702 0 0 1-.448-1.152V16.8c0-.47.149-.853.448-1.152a1.703 1.703 0 0 1 1.152-.448h29.888c.469 0 .853.15 1.152.448.298.299.448.683.448 1.152v6.016c0 .427-.15.81-.448 1.152-.299.299-.683.448-1.152.448h-20.416v8.64h19.008c.469 0 .853.17 1.152.512.298.299.448.683.448 1.152v5.568c0 .427-.15.81-.448 1.152-.299.299-.683.448-1.152.448h-19.008v8.896h20.928c.469 0 .853.15 1.152.448.298.299.448.683.448 1.152V58.4c0 .427-.15.81-.448 1.152-.299.299-.683.448-1.152.448h-30.4Z" fill="url(#a)"/><path fill-rule="evenodd" clip-rule="evenodd" d="M3.063 20.168.176 25.31 0 25.55l.031.017-.031.055v25.562l28.535 16 .057.092 28.173-15.92.001-.496.001-.993-.021-.03V21.94h-.012l.03-.045L30.123 7.276 3.063 20.17v-.001Zm47.085 9.462L28.632 41.469l-.06.102L5.106 28.413v4.776l23.733 13.308 13.162-7.38 3.299 5.55-16.709 9.221-.02-.04v.04L5.107 40.614v6.034L28.545 59.79l21.603-12.114V29.63ZM9.496 23.879l19.796-10.483 18.735 10.072-19.323 10.835-6.053-3.285 9.24-5.182a.97.97 0 0 0 .361-1.348l-2.277-3.831a1.03 1.03 0 0 0-1.383-.37l-12.647 7.091-6.449-3.5Z" fill="url(#b)"/><defs><linearGradient id="a" x1="64" y1="0" x2="64" y2="76" gradientUnits="userSpaceOnUse"><stop stop-color="#42275A"/><stop offset="1" stop-color="#734B6D"/></linearGradient><linearGradient id="b" x1="0" y1="7.276" x2="0" y2="67.276" gradientUnits="userSpaceOnUse"><stop stop-color="#42275A"/><stop offset="1" stop-color="#734B6D"/></linearGradient></defs></svg>
